X:1
T:There Is a Better World
T:John Hayhurst
T:There Is a Better World
T:Public Domain
T:Public Domain
C:John Hayhurst
Z:Public Domain
%%score ( 1 2 ) ( 3 4 )
L:1/8
M:4/4
K:C
V:1 treble 
V:2 treble 
V:3 bass 
V:4 bass 
V:1
 ([G,C][CE]) | [CG]2 [CG]2 [CG]2 (cB) | [CA]2 [Cc]2 [CG]4 | [DG]3 [DF] [CE]4 | %4
w: 1.~There *|is a bet- ter *|they say O|so bright! O|
w: 2.~No *|clouds e’er pass a- *|that sky, Hap-|py land! Hap-|
w: 3.~And *|wick- ed things and *|of prey, Come|not there! Come|
w: 4.~And *|though we’re sin- ners *|ery one, Je-|sus died! Je-|
 [B,F]3 [CE] [B,D]2 ([G,C][CE]) | [CG]2 [CG]2 [CG]2 (cB) | [CA]2 [Cc]2 [CG]4 | [CG]3 [CG] (C2 F2) | %8
w: so bright! Where sin *|and woe are done *|way, O so|bright! O so *|
w: py land! No tear *|drops glist- en in *|eye, Hap- py|land! Hap- py *|
w: not there! And ruth- *|less death and fierce *|cay, Come not|there! Come not *|
w: sus died! And though *|our crown of peace *|gone, Je- sus|died! Je- sus *|
 [DFB]3 [DFB] [Ec]2 (cB) | [CA]2 [^CA]2 [DA]2 (BA) | [B,G]2 [B,G]2 [CG]2 (AG) | %11
w: And mu- sic fills *|balm- y air, And *|gels with bright wings *|
w: They drink the gush- *|streams of grace, And *|up- on the Sav- *|
w: There all are ho- *|all are good, But *|un- washed in Je- *|
w: We may be cleansed *|ev- ery stain, We *|be crowned with bliss *|
 [DF]2 [DF]2 [DF]2 [B,G]2 | [CE]2 [CE]2 [CE]2 ([G,C][CE]) | [CG]2 [CG]2 [CG]2 (cB) | %14
w: there, And harps of|gold and man- sions *|fair, O so bright! *|
w: face Whose bright- ness|fills the ho- ly *|place; Hap- py land! *|
w: blood, And guilt- y|sin- ners un- re- *|newed, Come not there! *|
w: gain, And in that|land of glo- ry *|reign; Je- sus died! *|
 [CA]2 [Cc]2 [CG]4 | [CG]3 [CG] (C2 F2) | [DFB]3 [DFB] [Ec]2 |] %17
w: so bright! *|||
w: py land! *|||
w: not there! *|||
w: sus died! *|||
V:2
 x2 | x6 C2 | x8 | x8 | x8 | x6 C2 | x8 | x4 A4 | x6 D2 | x6 B,2 | x6 A,2 | x8 | x8 | x6 C2 | x8 | %15
w: |world,||||a-||bright!|the|an-|are|||O||
w: |long||||the||land!|ing|gaze|ior’s|||Hap-||
w: |beasts||||de-||there!|ly,|hearts|sus’|||Come||
w: |ev-||||is||died!|from|may|a-|||Je-||
 x4 A4 | x6 |] %17
w: ||
w: ||
w: ||
w: ||
V:3
 (E,G,) | [C,E,]2 [C,E,]2 [C,E,]2 (A,,G,,) | [F,,F,]2 [A,,F,]2 [C,E,]4 | %3
 [B,,G,]3 [B,,G,] (C,2 E,2) | [D,G,]3 [C,G,] [G,,G,]2 (E,G,) | [C,E,]2 [C,E,]2 [C,E,]2 (A,,G,,) | %6
 [F,,F,]2 [A,,F,]2 [C,E,]4 | [E,G,]3 [E,G,] (F,2 D,2) | [G,,G,]3 [G,,G,] [C,G,]2 [E,^G,]2 | %9
 [F,A,]2 [E,G,]2 [D,F,]2 [^D,^F,]2 | [E,G,]2 [D,F,]2 [C,E,]2 [^C,E,]2 | %11
 [D,A,]2 [C,_A,]2 [B,,G,]2 [G,,G,]2 | [C,G,]2 [C,G,]2 [C,G,]2 (E,G,) | %13
 [C,E,]2 [C,E,]2 [C,E,]2 (A,,G,,) | [F,,F,]2 [A,,F,]2 [C,E,]4 | [E,G,]3 [E,G,] (F,2 D,2) | %16
 [G,,G,]3 [G,,G,] [C,G,]2 |] %17
V:4
 C,2 | x6 E,2 | x8 | x4 G,4 | x6 C,2 | x6 E,2 | x8 | x4 F,4 | x8 | x8 | x8 | x8 | x6 C,2 | x6 E,2 | %14
 x8 | x4 F,4 | x6 |] %17

